static/assets/images/protocols/dolomite-mono.svg

<svg width="393" height="393" viewBox="0 0 393 393" fill="none" xmlns="http://www.w3.org/2000/svg">
<path d="M189.54 392.875C141.229 391.694 97.0474 373.879 61.9199 340.476C51.1752 330.258 41.6659 319.714 33.5599 307.903C14.2235 279.732 3.2241 248.415 0.561856 213.952C-0.0937712 205.446 -0.185886 193.353 0.339699 183.497C3.18978 129.847 26.4781 84.4813 65.9295 48.7488C97.3454 20.2929 136.683 3.90315 179.104 0.527664C187.213 -0.118897 197.725 -0.171271 210.639 0.37054C259.551 2.424 305.239 24.8171 339.104 60.4628C348.102 69.9337 355.487 79.0235 361.26 87.7322C379.801 115.719 390.223 146.208 392.524 179.201C393.105 187.537 393.154 197.447 392.67 208.93C390.389 263.393 365.009 312.102 323.791 347.238C292.332 374.058 255.697 389.147 213.884 392.506C207.747 393.001 199.632 393.124 189.54 392.875ZM59.9855 128.709C78.7332 141.805 97.5405 154.814 116.391 167.752C118.504 169.204 120.829 173.555 122.135 175.82C127.008 184.276 131.927 192.842 136.894 201.518C137.075 201.832 137.344 201.957 137.702 201.892C139.278 201.615 144.496 201.019 145.569 199.849C154.325 190.274 163.107 180.723 171.914 171.198C174.731 168.148 178.323 168.435 182.284 169.752C185.541 170.835 193.891 172.905 195.836 176.362C200.142 184.012 204.431 191.679 208.704 199.362C208.798 199.528 208.876 199.52 208.937 199.34C210.827 194.026 212.759 188.733 214.735 183.459C216.437 178.903 219.753 177.348 224.629 177.554C228.205 177.705 240.581 178.838 242.97 181.509C274.437 216.64 305.914 251.762 337.402 286.875C338.313 287.893 339.001 288.733 340.404 289.118C343.121 289.855 345.835 290.57 348.548 291.264C348.623 291.284 348.702 291.279 348.773 291.249C348.845 291.22 348.905 291.168 348.944 291.101C365.289 264.191 374.439 235.02 376.393 203.588C376.594 200.348 376.675 196.344 376.572 193.526C374.985 150.989 359.174 110.504 331.637 78.0879C327.472 73.1827 323.549 69.0668 319.868 65.74C291.462 40.051 258.256 24.2698 220.251 18.3966C168.435 10.3886 114.89 29.5037 76.0348 63.2152C55.3636 81.1546 39.1409 106.62 29.2361 132.047C29.153 132.26 29.2198 132.334 29.4365 132.269C35.5991 130.412 41.7544 128.547 47.9025 126.672C52.0367 125.41 56.4581 126.25 59.9855 128.709ZM70.8657 324.964C98.4833 351.421 134.18 368.677 171.903 374.486C172.166 374.525 172.212 374.446 172.038 374.247C171.09 373.169 170.64 371.912 170.12 370.942C129.894 295.475 89.5772 219.849 49.1704 144.064C49.0788 143.89 48.9288 143.753 48.746 143.677C48.5633 143.601 48.359 143.591 48.168 143.647L23.1891 151.211C23.0013 151.265 22.8821 151.386 22.8315 151.574C18.5997 167.303 15.8959 184.852 16.5841 201.014C18.4047 243.72 35.0338 284.892 63.3829 317.135C65.8103 319.898 68.3046 322.508 70.8657 324.964ZM136.152 218.888C132.029 219.739 126.453 216.136 124.481 212.69C118.463 202.168 112.425 191.657 106.367 181.157C106.026 180.566 105.197 179.851 104.742 179.547C95.1329 173.006 85.5821 166.407 76.089 159.75C76.0384 159.714 76.0276 159.724 76.0565 159.782L157.1 311.82C157.111 311.838 157.127 311.852 157.146 311.861C157.166 311.869 157.187 311.871 157.208 311.867C157.228 311.863 157.247 311.853 157.262 311.837C157.276 311.822 157.286 311.803 157.289 311.782L167.606 200.044C167.617 199.925 167.582 199.911 167.503 200.001C163.815 204.18 160.049 208.292 156.206 212.338C151.86 216.911 142.091 217.664 136.152 218.888ZM191.821 376.469C194.823 376.577 197.786 376.566 200.712 376.436C228.241 375.215 254.206 368.381 278.607 355.934C278.633 355.921 278.657 355.903 278.675 355.88C278.694 355.858 278.708 355.832 278.716 355.804C278.724 355.776 278.726 355.747 278.723 355.718C278.719 355.689 278.709 355.661 278.694 355.636C252.57 309.716 226.567 264.003 200.685 218.498C196.47 211.083 191.241 201.671 184.999 190.265C184.938 190.156 184.901 190.165 184.891 190.292C180.513 237.884 176.116 285.477 171.702 333.07C171.496 335.307 170.423 336.759 171.615 339.002C178.233 351.457 184.847 363.87 191.458 376.241C191.494 376.309 191.547 376.365 191.61 376.405C191.674 376.445 191.747 376.467 191.821 376.469ZM338.79 305.594C338.595 305.394 334.514 304.424 333.897 304.262C331.014 303.492 328.169 301.038 326.354 299.006C295.607 264.691 264.863 230.371 234.122 196.046C232.816 194.588 230.281 194.464 228.422 194.339C228.231 194.328 228.102 194.411 228.037 194.588C226.372 199.147 224.714 203.71 223.063 208.28C222.247 210.548 220.508 212.791 217.845 215.009C217.683 215.146 217.654 215.307 217.759 215.491L292.771 347.368C292.799 347.417 292.837 347.459 292.882 347.492C292.928 347.526 292.979 347.55 293.034 347.563C293.088 347.576 293.145 347.578 293.2 347.569C293.256 347.56 293.309 347.539 293.356 347.509C310.928 336.353 326.121 323.089 338.806 305.871C338.878 305.773 338.873 305.681 338.79 305.594Z" fill="black"/>
</svg>

<svg xmlns="http://www.w3.org/2000/svg" fill="none" viewBox="0 0 393 393"><path fill="#000" d="M189.54 392.875c-48.311-1.181-92.493-18.996-127.62-52.399-10.745-10.218-20.254-20.762-28.36-32.573Q4.556 265.647.562 213.952c-.656-8.506-.748-20.599-.222-30.455 2.85-53.65 26.138-99.016 65.59-134.748C97.345 20.293 136.683 3.903 179.104.528q12.164-.971 31.535-.157c48.912 2.053 94.6 24.446 128.465 60.092q13.497 14.205 22.156 27.27 27.812 41.979 31.264 91.468.872 12.504.146 29.729c-2.281 54.463-27.661 103.172-68.879 138.308q-47.188 40.23-109.907 45.268-9.206.742-24.344.369M59.986 128.709a8325 8325 0 0 0 56.405 39.043c2.113 1.452 4.438 5.803 5.744 8.068q7.309 12.684 14.759 25.698.271.471.808.374c1.576-.277 6.794-.873 7.867-2.043a7074 7074 0 0 1 26.345-28.651c2.817-3.05 6.409-2.763 10.37-1.446 3.257 1.083 11.607 3.153 13.552 6.61q6.459 11.475 12.868 23 .141.248.233-.022 2.834-7.97 5.798-15.881c1.702-4.556 5.018-6.111 9.894-5.905 3.576.151 15.952 1.284 18.341 3.955q47.2 52.697 94.432 105.366c.911 1.018 1.599 1.858 3.002 2.243a583 583 0 0 0 8.144 2.146c.075.02.154.015.225-.015a.35.35 0 0 0 .171-.148q24.518-40.365 27.449-87.513c.201-3.24.282-7.244.179-10.062-1.587-42.537-17.398-83.022-44.935-115.438q-6.248-7.358-11.769-12.348-42.61-38.533-99.617-47.343C168.435 10.389 114.89 29.504 76.035 63.215c-20.671 17.94-36.894 43.405-46.799 68.832q-.124.32.2.222a5791 5791 0 0 0 18.467-5.597c4.134-1.262 8.555-.422 12.083 2.037m10.88 196.255c27.617 26.457 63.314 43.713 101.037 49.522q.395.059.135-.239c-.948-1.078-1.398-2.335-1.918-3.305q-60.34-113.2-120.95-226.878a.85.85 0 0 0-.424-.387.87.87 0 0 0-.578-.03l-24.979 7.564a.49.49 0 0 0-.358.363c-4.231 15.729-6.935 33.278-6.247 49.44 1.82 42.706 18.45 83.878 46.799 116.121a127 127 0 0 0 7.483 7.829m65.286-106.076c-4.123.851-9.699-2.752-11.671-6.198a9658 9658 0 0 0-18.114-31.533c-.341-.591-1.17-1.306-1.625-1.61q-14.414-9.811-28.653-19.797-.075-.055-.032.032L157.1 311.82a.1.1 0 0 0 .046.041.1.1 0 0 0 .062.006.102.102 0 0 0 .081-.085l10.317-111.738q.016-.178-.103-.043a457 457 0 0 1-11.297 12.337c-4.346 4.573-14.115 5.326-20.054 6.55m55.669 157.581q4.502.162 8.891-.033 41.293-1.831 77.895-20.502a.2.2 0 0 0 .068-.054.2.2 0 0 0 .041-.076.2.2 0 0 0 .007-.086.2.2 0 0 0-.029-.082q-39.186-68.88-78.009-137.138-6.323-11.123-15.686-28.233-.092-.163-.108.027-6.567 71.388-13.189 142.778c-.206 2.237-1.279 3.689-.087 5.932a17810 17810 0 0 0 19.843 37.239.42.42 0 0 0 .363.228m146.969-70.875c-.195-.2-4.276-1.17-4.893-1.332-2.883-.77-5.728-3.224-7.543-5.256a571665 571665 0 0 1-92.232-102.96c-1.306-1.458-3.841-1.582-5.7-1.707q-.287-.017-.385.249a4182 4182 0 0 0-4.974 13.692q-1.224 3.402-5.218 6.729-.243.206-.086.482l75.012 131.877a.415.415 0 0 0 .585.141c17.572-11.156 32.765-24.42 45.45-41.638q.108-.147-.016-.277"/></svg>
